Flat-Remix-Blue-Dark/status/scalable/16/package-installed-locked.svg

<svg xmlns="http://www.w3.org/2000/svg" width="36pt" height="36pt" version="1.1" viewBox="0 0 36 36"> <g> <path style="fill:rgb(21.176%,48.235%,94.117%)" d="M 36 34.195312 L 36 1.796875 C 36 0.800781 35.195312 -0.00390625 34.199219 -0.00390625 L 1.800781 -0.00390625 C 0.804688 -0.00390625 0 0.800781 0 1.796875 L 0 34.195312 C 0 35.1875 0.804688 35.996094 1.800781 35.996094 L 34.199219 35.996094 C 35.195312 35.996094 36 35.1875 36 34.195312 Z M 36 34.195312"/> <path style="fill:rgb(100.000%,100.000%,100.000%)" d="M 11.25 11.25 L 11.25 15.75 L 10.125 15.75 C 9.5 15.75 9 16.25 9 16.875 L 9 28.125 C 9 28.746094 9.5 29.25 10.125 29.25 L 25.875 29.25 C 26.5 29.25 27 28.746094 27 28.125 L 27 16.875 C 27 16.25 26.5 15.75 25.875 15.75 L 24.75 15.75 L 24.75 11.25 C 24.75 6.75 22.5 6.75 20.25 6.75 L 15.75 6.75 C 13.5 6.75 11.25 6.75 11.25 11.25 Z M 20.25 11.25 L 20.25 15.75 L 15.75 15.75 L 15.75 11.25 Z M 20.25 11.25"/> </g> </svg>

<svg width="16" height="16" version="1.1" viewBox="0 0 12 12" xmlns="http://www.w3.org/2000/svg"><g transform="matrix(.33333 0 0 .33333 0 -.002604)"><path d="m36 34.195v-32.398c0-0.99609-0.80469-1.8008-1.8008-1.8008h-32.398c-0.99609 0-1.8008 0.80469-1.8008 1.8008v32.398c0 0.99219 0.80469 1.8008 1.8008 1.8008h32.398c0.99609 0 1.8008-0.80859 1.8008-1.8008z" fill="#357af0"/><path d="m11.25 11.25v4.5h-1.125c-0.625 0-1.125 0.5-1.125 1.125v11.25c0 0.62109 0.5 1.125 1.125 1.125h15.75c0.625 0 1.125-0.50391 1.125-1.125v-11.25c0-0.625-0.5-1.125-1.125-1.125h-1.125v-4.5c0-4.5-2.25-4.5-4.5-4.5h-4.5c-2.25 0-4.5 0-4.5 4.5zm9 0v4.5h-4.5v-4.5z" fill="#fff"/></g></svg>
